round/svg/unsubscribe.svg

<svg xmlns="http://www.w3.org/2000/svg" width="24" height="24"><path fill="none" d="M0 0h24v24H0V0z"/><g><path d="M18.5 11.5c.92 0 1.75.26 2.49.69V5c0-1.1-.89-2-1.99-2H5c-1.1 0-2 .9-2 2v10c0 1.1.9 2 2 2h8.55c-.02-.17-.05-.33-.05-.5 0-2.76 2.24-5 5-5zm-5.61-1.45c-.56.28-1.23.28-1.79 0l-5.61-2.8a.893.893 0 0 1-.49-.8c0-.66.7-1.1 1.29-.8L12 8.5l5.71-2.85a.89.89 0 0 1 1.29.8c0 .34-.19.65-.49.8l-5.62 2.8z"/><path d="M18.5 13c-1.93 0-3.5 1.57-3.5 3.5s1.57 3.5 3.5 3.5 3.5-1.57 3.5-3.5-1.57-3.5-3.5-3.5zm2 3.5c0 .28-.22.5-.5.5h-3c-.28 0-.5-.22-.5-.5s.22-.5.5-.5h3c.28 0 .5.22.5.5z"/></g></svg>

<?xml version="1.0" encoding="utf-8"?>
<!-- Generator: Adobe Illustrator 19.1.0, SVG Export Plug-In . SVG Version: 6.00 Build 0)  -->
<svg version="1.1" xmlns="http://www.w3.org/2000/svg" xmlns:xlink="http://www.w3.org/1999/xlink" x="0px" y="0px" width="24px"
	 height="24px" viewBox="0 0 24 24" enable-background="new 0 0 24 24" xml:space="preserve">
<g id="Bounding_Boxes">
	<g id="ui_x5F_spec_x5F_header_copy_2">
	</g>
	<path fill="none" d="M0,0h24v24H0V0z"/>
</g>
<g id="Rounded_1_">
	<g id="ui_x5F_spec_x5F_header_copy_6">
	</g>
	<g>
		<path d="M18.5,11.5c0.92,0,1.75,0.26,2.49,0.69V5c0-1.1-0.89-2-1.99-2H5C3.9,3,3,3.9,3,5v10c0,1.1,0.9,2,2,2h8.55
			c-0.02-0.17-0.05-0.33-0.05-0.5C13.5,13.74,15.74,11.5,18.5,11.5z M12.89,10.05c-0.56,0.28-1.23,0.28-1.79,0L5.49,7.25
			C5.19,7.1,5,6.79,5,6.45c0-0.66,0.7-1.1,1.29-0.8L12,8.5l5.71-2.85C18.3,5.35,19,5.78,19,6.45c0,0.34-0.19,0.65-0.49,0.8
			L12.89,10.05z"/>
		<path d="M18.5,13c-1.93,0-3.5,1.57-3.5,3.5s1.57,3.5,3.5,3.5s3.5-1.57,3.5-3.5S20.43,13,18.5,13z M20.5,16.5
			c0,0.28-0.22,0.5-0.5,0.5h-3c-0.28,0-0.5-0.22-0.5-0.5v0c0-0.28,0.22-0.5,0.5-0.5h3C20.28,16,20.5,16.22,20.5,16.5L20.5,16.5z"/>
	</g>
</g>
</svg>
